shader_type canvas_item;
//16373c
//0f2a31
uniform vec4 color2: source_color;
uniform vec4 color1: source_color ;
uniform vec4 color3: source_color;

void fragment() {
	//vec4 tex = texture(TEXTURE, UV);
	//if (tex.r >= color1.r && tex.r <= color2.r || tex.r == color3.r) {
	//	COLOR = vec4(255, 0, 0, 0);
	//} else {
	//	COLOR = tex;
	//}
}